public/images/placeholder.svg

<svg width="288" height="288" viewBox="0 0 288 288" fill="none" xmlns="http://www.w3.org/2000/svg">
<g clip-path="url(#clip0_4720_12252)">
<path d="M-13 -13H280C291.046 -13 300 -4.046 300 7V280C300 291.046 291.046 300 280 300H-13V-13Z" fill="#07233C"/>
<path opacity="0.5" d="M146.53 80.801L79.7698 100.952C75.54 102.229 73.1461 106.693 74.4228 110.922L98.0052 189.051C99.282 193.281 103.746 195.675 107.976 194.398L174.736 174.247C178.966 172.97 181.359 168.506 180.083 164.276L156.5 86.148C155.224 81.9182 150.76 79.5243 146.53 80.801Z" fill="#21456D"/>
<path d="M206.903 80.6015L139.111 64.2585C133.923 63.0079 128.704 66.1995 127.454 71.387L107.372 154.686C106.122 159.873 109.313 165.092 114.501 166.343L182.293 182.686C187.48 183.937 192.699 180.745 193.95 175.557L214.031 92.2588C215.282 87.0713 212.09 81.8521 206.903 80.6015Z" fill="#345E91" stroke="#07233C" stroke-width="3.323"/>
<path d="M203.476 84.9047L140.2 69.6503C136.442 68.7443 132.661 71.0565 131.754 74.8148L115.098 143.905C114.192 147.664 116.505 151.445 120.263 152.351L183.539 167.605C187.297 168.511 191.079 166.199 191.985 162.441L208.641 93.3502C209.547 89.5919 207.235 85.8107 203.476 84.9047Z" fill="#07233C"/>
<path d="M190.551 114.51L160.818 86.2441L156.765 87.4341L155.772 91.5531L152.707 88.6471L148.654 89.8371L147.661 93.9571L144.596 91.0511L140.544 92.2411L130.93 132.119L133.995 135.024L138.047 133.835L137.054 137.954L140.119 140.86L144.172 139.67L143.179 143.79L146.244 146.695L185.591 135.083L186.584 130.964L183.519 128.058L187.571 126.868L188.564 122.749L185.499 119.843L189.552 118.654L190.551 114.51ZM139.016 129.709L134.963 130.899L143.584 95.1401L146.65 98.0461L139.016 129.709ZM147.237 142.576L148.23 138.456L179.466 129.248L182.531 132.153L147.237 142.576ZM149.217 134.361L154.87 110.912L151.805 108.006L145.159 135.575L141.106 136.765L149.733 100.981L167.211 117.601L171.264 116.412L150.72 96.8861L151.714 92.7661L178.381 118.128L155.25 124.957L154.257 129.076L181.441 121.057L184.506 123.963L149.217 134.361ZM182.44 116.914L158.831 94.4831L159.824 90.3631L186.492 115.724L182.44 116.914Z" fill="#143455"/>
</g>
<defs>
<clipPath id="clip0_4720_12252">
<rect width="288" height="288" fill="white"/>
</clipPath>
</defs>
</svg>

<svg width="288" height="288" fill="none" xmlns="http://www.w3.org/2000/svg">
  <path d="M-13-13h293c11.046 0 20 8.954 20 20v273c0 11.046-8.954 20-20 20H-13V-13Z" fill="#16161D"/>
  <rect opacity=".5" x="72.111" y="103.264" width="85.735" height="97.61" rx="8" transform="rotate(-16.796 72.111 103.264)" fill="#24242D"/>
  <rect x="129.718" y="61.995" width="89.058" height="105.009" rx="9.662" transform="rotate(13.554 129.718 61.995)" fill="#24242D" stroke="#16161D" stroke-width="3.323"/>
  <rect x="133.395" y="68.01" width="79.089" height="85.07" rx="7" transform="rotate(13.554 133.395 68.01)" fill="#16161D"/>
  <path d="m190.551 114.511-29.733-28.266-4.053 1.19-.993 4.119-3.065-2.906-4.053 1.19-.993 4.12-3.065-2.906-4.052 1.19-9.614 39.878 3.065 2.905 4.052-1.189-.993 4.119 3.065 2.906 4.053-1.19-.993 4.12 3.065 2.905 39.347-11.612.993-4.119-3.065-2.906 4.052-1.19.993-4.119-3.065-2.906 4.053-1.189.999-4.144Zm-51.535 15.199-4.053 1.19 8.621-35.759 3.066 2.906-7.634 31.663Zm8.221 12.867.993-4.12 31.236-9.208 3.065 2.905-35.294 10.423Zm1.98-8.215 5.653-23.449-3.065-2.906-6.646 27.569-4.053 1.19 8.627-35.784 17.478 16.62 4.053-1.189-20.544-19.526.994-4.12 26.667 25.362-23.131 6.829-.993 4.119 27.184-8.019 3.065 2.906-35.289 10.398Zm33.223-17.447-23.609-22.431.993-4.12 26.668 25.361-4.052 1.19Z" fill="#24242D"/>
</svg>
